public/images/designs.svg

<svg width="24" height="24" viewBox="0 0 24 24" fill="none" xmlns="http://www.w3.org/2000/svg">
<g clip-path="url(#clip0_7405_139)">
<path d="M16.5206 13.3591L10.6406 7.47913C10.4289 7.26769 10.1659 7.11494 9.87739 7.0359C9.58885 6.95685 9.28472 6.95422 8.99486 7.02827L3.62401 8.43398C3.25343 8.5287 2.92554 8.74545 2.69322 9.04931C2.4609 9.35316 2.33768 9.72639 2.34343 10.1088C2.37672 14.3314 1.60706 18.5217 0.0754333 22.4568C-0.000785044 22.661 -0.0166936 22.8828 0.0296032 23.0958C0.0759001 23.3087 0.18245 23.5039 0.336556 23.658C0.490663 23.8121 0.685827 23.9187 0.898792 23.965C1.11176 24.0113 1.33354 23.9953 1.53772 23.9191C5.47316 22.3893 9.66352 21.6213 13.8857 21.6563C14.2682 21.662 14.6414 21.5388 14.9453 21.3065C15.2491 21.0742 15.4659 20.7463 15.5606 20.3757L16.9714 15.0048C17.0455 14.715 17.0429 14.4109 16.9638 14.1223C16.8848 13.8338 16.732 13.5708 16.5206 13.3591ZM11.1943 16.8734C10.792 17.2757 10.2794 17.5497 9.72144 17.6607C9.16344 17.7717 8.58505 17.7147 8.05942 17.497C7.53379 17.2793 7.08452 16.9106 6.76843 16.4376C6.45234 15.9645 6.28363 15.4084 6.28363 14.8394C6.28363 14.2705 6.45234 13.7143 6.76843 13.2413C7.08452 12.7682 7.53379 12.3995 8.05942 12.1818C8.58505 11.9641 9.16344 11.9071 9.72144 12.0181C10.2794 12.1291 10.792 12.4031 11.1943 12.8054C11.7329 13.3453 12.0354 14.0768 12.0354 14.8394C12.0354 15.602 11.7329 16.3335 11.1943 16.8734Z" fill="#0E0E10"/>
<path d="M23.4975 7.36947L16.6291 0.501062C15.9597 -0.168307 14.8745 -0.168307 14.2051 0.501062L11.7617 2.94445C11.0924 3.61382 11.0924 4.69908 11.7617 5.36845L18.6301 12.2369C19.2995 12.9062 20.3848 12.9062 21.0541 12.2369L23.4975 9.79347C24.1669 9.1241 24.1669 8.03884 23.4975 7.36947Z" fill="#0E0E10"/>
</g>
<defs>
<clipPath id="clip0_7405_139">
<rect width="24" height="24" fill="white"/>
</clipPath>
</defs>
</svg>

<svg xmlns="http://www.w3.org/2000/svg" width="24" height="24" fill="none"><g fill="#0E0E10" clip-path="url(#a)"><path d="m16.52 13.36-5.88-5.88a1.73 1.73 0 0 0-1.645-.452L3.624 8.434a1.7 1.7 0 0 0-1.28 1.675A33.3 33.3 0 0 1 .074 22.457a1.137 1.137 0 0 0 1.463 1.462 33.3 33.3 0 0 1 12.348-2.263 1.7 1.7 0 0 0 1.675-1.28l1.41-5.371a1.72 1.72 0 0 0-.45-1.646m-5.326 3.513a2.877 2.877 0 1 1-4.068-4.068 2.877 2.877 0 0 1 4.068 4.068M23.498 7.37 16.629.5a1.714 1.714 0 0 0-2.424 0l-2.443 2.443c-.67.67-.67 1.755 0 2.424l6.868 6.869c.67.67 1.755.67 2.424 0l2.444-2.444c.669-.669.669-1.754 0-2.424"/></g><defs><clipPath id="a"><path fill="#fff" d="M0 0h24v24H0z"/></clipPath></defs></svg>
